X: 450
T: Bu Zevk u Safâ
C: Lem´i Atlı
O: Turkey
F: http://compmusic.upf.edu/node/140
N: rast--sarki--senginsemai--bu_zevk_u_safa--lemi_atli
N: makam= rast
N: form= sarki
N: usul= senginsemai = 6/4
M: 6/4
L: 1/16
K: C _1/4B ^f  
Q: 1/4=72
%%MIDI tuningsystem comma53
G4 G4 G4 G2{f}ed d8  | c3B A2c2 B2G2 A2F2 G8  | \
w:  ARANAĞME  |   | 
e3d d3c c3B B3A A6d2  | 
w:   | 
c2B2 A2G2 F2ED B2AG G4 z4  | G4 G4 G4 G2{f}ed d8  | \
w:   |  ARANAĞME  | 
c3B A2c2 B2G2 A2F2 G8  | 
w:   | 
e3d d3c c3B B3A A6d2  | c2B2 A2G2 F2ED B2AG G4 z4  | 
w:   |   | 
G4 G4 G4 e2ed d8  | c4 B4 A4 A3G G8  | \
w:  Bu  zevk_ ü  sa *  *  fâ   |  sahn_ *  ı  çe *  men  | 
=f4 e4 d4 c4 B3A G4  | d8 z2c2 B2A2 G2F2 E2D2  | 
w:  zâ *  re  de  kal  |  maz   SAZ  | 
G4 G4 G4 e2ed d8  | c4 B4 A4 A3G G8  | \
w:  Bu  zevk_ ü  sa *  *  fâ   |  sahn_ *  ı  çe *  men  | 
=f4 e4 d4 c4 B3A G4  | d8 d2B2 G2B2 d8  | 
w:  zâ *  re  de  kal  |  maz  SAZ  | 
d4 c4 B4 c4 A8  | z4 G4 F4 E4 D8  | d8 B4 A2G2 F2G2 A3G  | \
w:  Gül ler  dö kü lür   |  bül bül  ö lür   |  hâ re  de  *  kal  | 
G8 G2c2 B2c2 d8  | 
w:  maz   SAZ  | 
d4 c4 B4 c4 A8  | z4 G4 F4 E4 D8  | d8 B4 A2G2 F2G2 A3G  | \
w:  Gül ler  dö kü lür   |  bül bül  ö lür   |  hâ re  de  *  kal  | 
G8 d_7/8edc BABc d8  | 
w:  maz   SAZ  | 
_7/8e4 d4 c4 B4 e8  | d4 B4 _7/8A4 G4 d8  | \
w:  Bu  naz_ ü  e da   |  şuh_ *  i  si tem   | 
c4 _7/8e2dc c2B2 B2_7/8A2 cBA4AG  | 
w:  kâ *  *  *  re  *  de  *  kal  | 
G16 z8  | B4 c4 B2_7/8A2 A3G G8  | _7/8A8 G2=F2 F2FE F8  | \
w:  maz    |  Sabr_ ey le  *  gö *  nül   |  vus la *  tı  *  *  ağ  | 
G4 _7/8A4 B4 c2B2 {c}B2A2 {B}A2G2  | 
w:  yâ *  re  de  *  *  kal  | 
G8 G2c2 B2c2 d8  | d4 c4 B4 c4 A8  | \
w:  maz   SAZ  |  Gül ler  dö kü lür   | 
z4 G4 F4 E4 D8  | d8 B4 A2G2 F2G2 A3G  | 
w:  bül bül  ö lür   |  hâ re  de  *  kal  | 
G8 G2c2 B2c2 d8  | d4 c4 B4 c4 A8  | \
w:  maz   SAZ  |  Gül ler  dö kü lür   | 
z4 G4 F4 E4 D8  | d8 B4 A2G2 F2G2 A3G  | 
w:  bül bül  ö lür   |  hâ re  de  *  kal  | 
G8 |
w:  maz    | 


